src/images/icon-adv-4.svg

<svg width="73" height="80" viewBox="0 0 73 80" fill="none" xmlns="http://www.w3.org/2000/svg">
<path d="M26.8109 26.9318C22.7594 26.7947 19.5017 25.0669 17.038 22.1323C12.4116 16.6198 12.9864 8.33735 18.352 3.45563C23.1426 -0.877594 30.0959 -1.17927 35.352 2.74256C43.0991 8.52933 42.2231 20.4868 33.7368 25.2863C31.6837 26.4381 29.4663 26.9592 26.8109 26.9318ZM43.3729 33.8156C40.3069 35.0223 37.3777 36.1193 34.4486 37.2986C29.3294 39.3555 27.0299 43.8533 27.8238 49.2561C28.8914 56.661 31.0541 63.7093 34.3938 70.3463C34.0379 70.8399 33.6547 70.6479 33.2988 70.6479C23.7723 70.6754 14.2457 70.6754 4.71913 70.6479C1.78998 70.6479 -0.0167819 68.783 0.366471 65.9308C1.16035 59.76 1.78998 53.5619 2.96711 47.4734C4.5275 39.4104 9.45503 33.8156 16.7642 30.2777C17.5033 29.9212 18.0782 30.0309 18.79 30.4148C24.4566 33.5139 30.178 33.4316 35.8173 30.3874C36.5838 29.976 37.1587 29.976 37.8431 30.3051C39.7594 31.2102 41.5387 32.3072 43.3729 33.8156ZM51.1474 37.3535C46.1652 39.2184 41.2102 41.1107 36.2553 43.058C34.2843 43.8259 33.0798 45.8554 33.3262 47.7751C34.2022 55.0429 36.1732 62.0089 39.6225 68.4539C42.36 73.555 45.5903 78.2448 51.5581 80C52.4614 80 53.3375 80 54.1861 80C58.265 78.9579 61.112 76.2702 63.4389 72.9243C68.6128 65.492 71.2682 57.0998 72.5001 48.2139C72.5275 48.022 72.5548 47.8026 72.5548 47.6106V47.0072C72.4453 45.0326 71.2956 43.7162 69.1329 42.8934C64.4792 41.0833 59.7706 39.3555 55.1168 37.518C53.7755 36.9969 52.4614 36.8324 51.1474 37.3535ZM61.55 53.1231C61.9606 52.7117 62.5903 52.7117 63.0009 53.1231C63.3841 53.507 63.3841 54.1653 63.0009 54.5492L53.6386 63.9287C53.447 64.1207 53.2006 64.2304 52.9268 64.2304C52.6531 64.2304 52.4067 64.1207 52.1877 63.9287L42.8528 54.5492C42.4421 54.1653 42.4421 53.507 42.8528 53.1231C43.236 52.7117 43.893 52.7117 44.2763 53.1231L52.9268 61.7621L61.55 53.1231Z" fill="white"/>
</svg>

<svg xmlns="http://www.w3.org/2000/svg" width="73" height="80" fill="none" viewBox="0 0 73 80">
	<path fill="#fff" d="M26.81 26.932c-4.05-.137-7.308-1.865-9.772-4.8-4.626-5.512-4.052-13.795 1.314-18.676 4.79-4.334 11.744-4.635 17-.713 7.747 5.786 6.871 17.744-1.615 22.543-2.053 1.152-4.27 1.673-6.926 1.646zm16.563 6.884c-3.066 1.206-5.995 2.303-8.924 3.483-5.12 2.056-7.42 6.554-6.625 11.957 1.067 7.405 3.23 14.453 6.57 21.09-.356.494-.74.302-1.095.302-9.527.027-19.053.027-28.58 0-2.929 0-4.736-1.865-4.353-4.717.794-6.171 1.424-12.37 2.601-18.458 1.56-8.063 6.488-13.657 13.797-17.195.74-.357 1.314-.247 2.026.137 5.667 3.099 11.388 3.017 17.027-.028.767-.411 1.342-.411 2.026-.082a25.927 25.927 0 0 1 5.53 3.51zm7.774 3.537a977.629 977.629 0 0 0-14.892 5.705c-1.97.768-3.175 2.797-2.929 4.717.876 7.268 2.847 14.234 6.297 20.679C42.36 73.555 45.59 78.244 51.558 80h2.628c4.079-1.042 6.926-3.73 9.253-7.076 5.174-7.432 7.83-15.824 9.061-24.71.028-.192.055-.411.055-.603v-.604c-.11-1.974-1.26-3.29-3.422-4.114-4.654-1.81-9.362-3.538-14.016-5.375-1.341-.521-2.656-.686-3.97-.165zm10.403 15.77a1.007 1.007 0 0 1 1.45 0 1.028 1.028 0 0 1 0 1.426l-9.361 9.38a.993.993 0 0 1-.712.301c-.274 0-.52-.11-.74-.301l-9.334-9.38a.98.98 0 0 1 0-1.426.975.975 0 0 1 1.423 0l8.65 8.64 8.624-8.64z"/>
</svg>
